X:1
T:Don't You Be Foolish, Pray
M:3/4
L:1/4
K:C
 G| c2 G| E F G| A2 F| D- E F| G2 E| C- D E| D2 D| G,- A, B,| C2 C|\
 A,- B, C| D3| B,- A, G,| C D E| D2 C| C3-| C2||
